dist/svgs/unicons/line/money-bill.svg

<svg xmlns="http://www.w3.org/2000/svg" viewBox="0 0 24 24"><path d="M6 11a1 1 0 101 1 1 1 0 00-1-1zm12 0a1 1 0 101 1 1 1 0 00-1-1zm2-6H4a3 3 0 00-3 3v8a3 3 0 003 3h16a3 3 0 003-3V8a3 3 0 00-3-3zm1 11a1 1 0 01-1 1H4a1 1 0 01-1-1V8a1 1 0 011-1h16a1 1 0 011 1zm-9-7a3 3 0 103 3 3 3 0 00-3-3zm0 4a1 1 0 111-1 1 1 0 01-1 1z"/></svg>

<svg xmlns="http://www.w3.org/2000/svg" viewBox="0 0 24 24"><path d="M6,11a1,1,0,1,0,1,1A1,1,0,0,0,6,11Zm12,0a1,1,0,1,0,1,1A1,1,0,0,0,18,11Zm2-6H4A3,3,0,0,0,1,8v8a3,3,0,0,0,3,3H20a3,3,0,0,0,3-3V8A3,3,0,0,0,20,5Zm1,11a1,1,0,0,1-1,1H4a1,1,0,0,1-1-1V8A1,1,0,0,1,4,7H20a1,1,0,0,1,1,1ZM12,9a3,3,0,1,0,3,3A3,3,0,0,0,12,9Zm0,4a1,1,0,1,1,1-1A1,1,0,0,1,12,13Z"/></svg>
